X:1
T:i 3
L:1/8
Q:1/4=115
M:4/4
K:A
|: E2 |"A" A2 cA eAfA |"A" eAfA ecBc |"A" A2 cA eAfA |"Bm" ecBc"D" AFEF |"A" A2 cA eAfA | "A" eAfA ecBc :|
